images/icons/logopond-16.svg

<svg width="16" height="17" viewBox="0 0 16 17" fill="none" xmlns="http://www.w3.org/2000/svg">
<g clip-path="url(#clip0)">
<path d="M0.0144043 7.98102C0.0144043 7.90849 0.0289102 7.83596 0.0289102 7.76343L0.0144043 7.98102Z" fill="#37394F"/>
<path d="M7.65918 16.4856C7.90578 16.5001 8.15238 16.5001 8.39898 16.4856C8.28293 16.4856 8.15238 16.5001 8.03633 16.5001C7.92029 16.5001 7.78973 16.4856 7.65918 16.4856Z" fill="#37394F"/>
<path d="M7.55757 16.4857L7.35449 16.4712L7.55757 16.4857Z" fill="#37394F"/>
<path d="M7.35444 16.4711C6.75969 16.4133 6.16495 16.2978 5.58472 16.1245C6.15045 16.2978 6.74519 16.4133 7.35444 16.4711Z" fill="#37394F"/>
<path d="M0 8.24015C0 8.15351 0 8.06687 0.0145059 7.98022C0.0145059 8.06687 0.0145059 8.15351 0 8.24015Z" fill="#37394F"/>
<path d="M0.0290527 7.764C0.0290527 7.72048 0.0290527 7.69147 0.0435586 7.64795C0.0435586 7.69147 0.0435586 7.72048 0.0290527 7.764Z" fill="#37394F"/>
<path d="M15.8985 6.89711C15.2312 3.34476 11.7498 0.586643 8.00725 0.5C3.91659 0.51444 0.478694 3.59025 0.0435177 7.64801C0.0435177 7.69134 0.0290118 7.73466 0.0290118 7.76354C0.0290118 7.83574 0.0145059 7.90794 0.0145059 7.98014C0.0145059 8.05235 0 8.15343 0 8.24007C0 8.29783 0 8.37004 0 8.4278V8.55776C0.0290118 12.009 2.27743 15.056 5.58477 16.1101C6.165 16.2834 6.75975 16.4134 7.35449 16.4567L7.55757 16.4711H7.65911C7.78966 16.4711 7.90571 16.4856 8.03627 16.4856C8.16682 16.4856 8.28287 16.4856 8.39891 16.4711C10.9955 16.3412 12.8812 14.7671 11.6192 11.8646C8.05077 14.3339 1.9583 12.63 1.92928 6.70939C2.4515 6.66606 2.97371 6.66606 3.51043 6.70939C3.64098 6.05957 3.85857 5.42419 4.16319 4.83213C4.94651 5.1065 5.70082 5.48195 6.3971 5.94404C6.84678 5.23646 7.3835 4.60108 7.99275 4.03791C8.66002 4.58664 9.22575 5.23646 9.66092 5.98736C10.3717 5.46751 11.155 5.06318 11.9819 4.75993C12.3155 5.35198 12.5476 6.0018 12.6782 6.66606C13.1714 6.63718 13.6646 6.63718 14.1578 6.66606C14.1578 8.86101 13.3309 10.4783 12.0979 11.5181C14.4769 12.6877 16.5077 10.204 15.8985 6.89711Z" fill="#37394F"/>
<path d="M7.86233 7.0271H7.74628C7.03549 7.34479 6.42625 7.82132 6.15063 8.39894C7.20957 9.17872 7.51419 9.55417 8.2685 10.7383C10.2413 9.61193 10.1833 7.7058 10.1978 7.7058C9.13885 7.57584 8.21047 8.39894 8.10893 8.39894L7.86233 7.0271Z" fill="#37394F"/>
</g>
<defs>
<clipPath id="clip0">
<rect width="16" height="16" fill="white" transform="translate(0 0.5)"/>
</clipPath>
</defs>
</svg>

<svg width="16" height="17" fill="none" xmlns="http://www.w3.org/2000/svg"><g clip-path="url(#clip0)" fill="#37394F"><path d="M.01 7.98l.02-.22-.02.22zM7.66 16.49h.74l-.36.01-.38-.01zM7.56 16.49l-.2-.02.2.02zM7.35 16.47zM0 8.24l.01-.26-.01.26zM.03 7.76l.01-.11-.01.11z"/><path d="M15.9 6.9C15.23 3.34 11.75.59 8 .5A8.03 8.03 0 00.05 7.65l-.01.11-.02.22-.01.26v.32a8 8 0 007.35 7.9l.2.01h.1l.39.02c.13 0 .24 0 .36-.02 2.6-.13 4.48-1.7 3.22-4.6-3.57 2.46-9.66.76-9.7-5.16a9.63 9.63 0 011.59 0c.13-.65.35-1.29.65-1.88.79.28 1.54.65 2.24 1.11.45-.7.98-1.34 1.6-1.9.66.55 1.23 1.2 1.66 1.95a9.4 9.4 0 012.32-1.23c.34.6.57 1.24.7 1.9.5-.02.98-.02 1.48 0a6.1 6.1 0 01-2.06 4.86c2.38 1.17 4.4-1.32 3.8-4.62z"/><path d="M7.86 7.03h-.11c-.71.31-1.32.8-1.6 1.37a6.77 6.77 0 012.12 2.34C10.24 9.6 10.18 7.7 10.2 7.7c-1.06-.13-1.99.69-2.1.69l-.24-1.37z"/></g><defs><clipPath id="clip0"><path fill="#fff" transform="translate(0 .5)" d="M0 0h16v16H0z"/></clipPath></defs></svg>
